public/avatar/body/206.svg

<svg xmlns:xlink="http://www.w3.org/1999/xlink" height="82" width="84.85" xmlns="http://www.w3.org/2000/svg"><g transform="translate(37.4 42.25)"><use height="38" transform="translate(-11.95 -17.45)" width="32.05" xlink:href="#a"/><use height="38.95" transform="translate(-12.45 -17.95)" width="33.05" xlink:href="#b"/><use height="30.5" transform="translate(-19.55 .85)" width="48.65" xlink:href="#c"/></g><defs><path d="M27.35 7.4q2.15 4.15 3.55 8.75 1.45 4.7 1.15 9.5-.35 4.95-4.2 8.1-3.8 3.2-8.75 4.05l-2.6.2q-3.6 0-7.05-1.15-4.65-1.6-7.1-5.5Q-.2 27.4.05 23q.2-4.4 2-9.3Q3.85 8.75 7 5.05 10.1 1.3 14.7.1l1.8-.1q1.9.05 3.7.8 4.75 2.05 7.15 6.6" fill="#f4dbdb" fill-rule="evenodd" transform="translate(-.05)" id="d"/><path d="M27.35 7.4Q24.95 2.85 20.2.8 17.55-.3 14.7.1 10.1 1.3 7 5.05q-3.15 3.7-4.95 8.65-1.8 4.9-2 9.3-.25 4.4 2.3 8.35 2.45 3.9 7.1 5.5 4.65 1.55 9.65.95 4.95-.85 8.75-4.05 3.85-3.15 4.2-8.1.3-4.8-1.15-9.5-1.4-4.6-3.55-8.75Z" fill="none" stroke="#000" stroke-linecap="round" stroke-linejoin="round" transform="translate(.45 .5)" id="e"/><use height="38" width="32.05" xlink:href="#d" id="a"/><use height="38.95" width="33.05" xlink:href="#e" id="b"/><g id="c" fill-rule="evenodd"><path d="m16.4 10.2 3.05.75-.3.6-1.25 2.8v.25l.7 2.45.05.6h-1q-4.55-.05-7 2.8-1.95 2.25-2 5.15l-.05.8-.75.15q-1.55.35-2.8 3.6l-1 1.2-.85-1.3q-1.1-3.1-2.8-3.5l-.75-.15v-.8q-.1-2.9-2.05-5.15-2.45-2.85-7-2.8h-.95v-.55l.6-2.75-1.35-3.1 3.65-1.2 23.85.15" fill="#1a171b" transform="translate(19.55 -.85)"/><path d="M10.75 5q4.2.15 5.1 1.9.35.65.35 1.45l-.35 1.55 3.35 1.15-.15.3-1.3 2.9v.25q0 .55.7 2.45v.35l-.65-.05q-4.7-.05-7.3 3-1.95 2.3-2.05 5.35l-.05.55-.5.1q-1.8.4-3 3.7l-.75.9-.65-.9q-1.15-3.3-3-3.7l-.5-.1-.05-.55q-.1-3.05-2.05-5.35-2.55-3.05-7.3-3l-.65.05V17l.55-2.85-1.3-3.1 3.35-1.15-.35-1.55q0-.8.35-1.45.9-1.75 5.05-1.9 4.5-.15 6.6 2.95Q6.3 4.85 10.75 5" fill="#1a171b" transform="translate(19.55 -.85)"/><path d="M4.15 9.75q.5-4.1 6.5-3.9 4.35.15 4.7 2.4.15 1.1-.55 2.2l3.35 1.15q-1.05 1.7-1.2 2.55-.15.75.7 2.5-5.15-.05-7.85 3.3-2.05 2.45-2.15 5.65-2.3.5-3.5 4.1v.1l-.05.05v-.15Q2.9 26.1.6 25.6q-.1-3.2-2.15-5.65-2.7-3.35-7.9-3.3.8-1.75.6-2.55l-1.1-2.5 3.35-1.15q-.7-1.1-.5-2.2.35-2.25 4.7-2.4 6.05-.2 6.55 3.9" fill="#d9c288" transform="translate(19.55 -.85)"/><path d="M15.15 15.05q1.05-.7 2.1-2.15l.9-1.3-1.2 2.55v.15q-.2.75.7 2.35-5.15-.05-7.85 3.3-2.05 2.45-2.15 5.65-2.3.5-3.5 4.1v.1l-.05.05v-.15q.15-7 3.1-10.7 1.25-1.6 4-2.5l3.95-1.45" fill="#b69a65" transform="translate(19.55 -.85)"/><path d="M16.65 12.25q.1 1.05-.95 1.45-2.35.95-5.4.1l-4.95-1.3-5 .2q-3.3 0-6.7-2.15 8.35.8 8.95-1.8L2.15 7.3l.9.65q.9.85 1.1 2.05l.55-1.55 2.25 1.9q2.9 1.45 6.1-.65 1.2-.75 1.4-1.95V6.7l.7 1q.55 1.3-.35 2.75 1.8.6 1.85 1.8M5.2 18.05q-2.1 3.3-2.2 8l-1.8-1.4q.15-1.6-1-3.85l-1.15-1.95q-1.35-1.45-4.1-2.45l-2.45-.7 4.6.95q2.5 1.1-.65-2.65l2.85 2.2q3.35 2.1 5.9 1.85" fill="#b69a65" transform="translate(19.55 -.85)"/><path d="M-.35 6.7 1.1 7.75q-5.2 2.5-7.55 1.9-.25-.65-.1-1.4.3-1.5 2.4-1.9 2.15-.4 3.8.35m7.9 2.8q-2.3-.55-1.75-1.2.5-.7 2.85-1.5 2.65-.9 3.9-.35 1.5.65-.7 2.05-2.25 1.4-4.3 1M-6.8 11.3q1.1.9 1.9 2.4.8 1.55-.05 1.45-3.15-.25-3.35-1.2-.95-1.9-.65-1.95l2.15-.7" fill="#ffe3ae" transform="translate(19.55 -.85)"/><path d="M4.3 14.7q7.1 0 12.85-1.35l-.2 1.3q-4.4 1.5-12.65 1.5l-5.35-.25-.45-1.45 5.8.25" fill="#533a2d" transform="translate(19.55 -.85)"/><path d="m-7.6 13.7 6.1.75.45 1.45-5.65-.7-.9-1.5" fill="#7c6038" transform="translate(19.55 -.85)"/><path d="m-9.45 13.35 1.85.35.9 1.5-2.5-.55-.25-1.3" fill="#533a2d" transform="translate(19.55 -.85)"/><path d="m-8.9 14 1.65.25.2.35-1.8-.4-.05-.2" fill="#b69a65" transform="translate(19.55 -.85)"/><path d="m-7.25 14.25 5.85.7.1.45-5.75-.8-.2-.35" fill="#d9c288" transform="translate(19.55 -.85)"/><path d="m4.3 15.25 12.1-1.15v.3q-5.2 1.2-12.1 1.2l-5.6-.2-.1-.45 5.7.3" fill="#b69a65" transform="translate(19.55 -.85)"/><path d="M2.7 16.9q1.6-.3.9.55l-1.5 1.1Q.5 19.9-.15 21.45l-.95-1.9 1.3-1.2q1.5-1.25 2.5-1.45" fill="#d9c288" transform="translate(19.55 -.85)"/><path d="M-10.1 3.1q.7 4.25 2.15 6.75l.5.9-.7-.7q-1.1-1.1-3.75-2l-3.85-1.6q-2.1-1.2-3.15-3.4l-.65-2.2.2.05 2.45.45 6.45.45h.1l.25 1.3" fill="#1a171b" transform="translate(19.55 -.85)"/><path d="m-10.8 3.3-3.2-.75q-1.85-.05-2.8 2.05-1.35-1.15-1.8-2.85l7.65.75.15.65v.15" fill="#fff" transform="translate(19.55 -.85)"/><path d="M-10.65 4.1q-2.1.55-3.6 2.1l-1.15-.55-1.4-1.05q.95-2.1 2.8-2.05l3.2.75.15.8" fill="#b8b1b1" transform="translate(19.55 -.85)"/><path d="M-14.25 6.2q1.5-1.55 3.6-2.1l1.1 3.8q-1-.45-2.15-.75l-2.55-.95" fill="#777774" transform="translate(19.55 -.85)"/><path d="m28.9.9.2-.05v.2q-.4 3.5-3.8 5.4-1.5.85-3.85 1.6-2.6.9-3.75 2l-.75.7.5-.9q1.4-2.4 2.2-6.75l.25-1.3h.1q5.45 0 8.9-.9" fill="#1a171b" transform="translate(19.55 -.85)"/><path d="m20.3 3.3.05-.15.15-.65 7.7-.75q-.45 1.6-1.8 2.85-.95-2.2-6.1-1.3" fill="#fff" transform="translate(19.55 -.85)"/><path d="m20.15 4.1.15-.8q5.1-.85 7.3-.15-.65 1.4-2.65 2.5l-1.15.55q-1.5-1.55-3.65-2.1" fill="#b8b1b1" transform="translate(19.55 -.85)"/><path d="m23.8 6.2-2.6.95q-1.1.3-2.1.75.6-1.45 1.05-3.8 2.15.55 3.65 2.1" fill="#777774" transform="translate(19.55 -.85)"/></g></defs></svg>

<?xml version="1.0" encoding="UTF-8" standalone="no"?>
<svg xmlns:xlink="http://www.w3.org/1999/xlink" height="82.0px" width="84.85px" xmlns="http://www.w3.org/2000/svg">
  <g transform="matrix(1.0, 0.0, 0.0, 1.0, 37.4, 42.25)">
    <use height="38.0" transform="matrix(1.0, 0.0, 0.0, 1.0, -11.95, -17.45)" width="32.05" xlink:href="#sprite0"/>
    <use height="38.95" transform="matrix(1.0, 0.0, 0.0, 1.0, -12.45, -17.95)" width="33.05" xlink:href="#sprite1"/>
    <use height="30.5" transform="matrix(1.0, 0.0, 0.0, 1.0, -19.55, 0.85)" width="48.65" xlink:href="#shape2"/>
  </g>
  <defs>
    <g id="sprite0" transform="matrix(1.0, 0.0, 0.0, 1.0, -0.05, 0.0)">
      <use height="38.0" transform="matrix(1.0, 0.0, 0.0, 1.0, 0.05, 0.0)" width="32.05" xlink:href="#shape0"/>
    </g>
    <g id="shape0" transform="matrix(1.0, 0.0, 0.0, 1.0, -0.05, 0.0)">
      <path d="M27.35 7.4 Q29.5 11.55 30.9 16.15 32.35 20.85 32.05 25.65 31.7 30.6 27.85 33.75 24.05 36.95 19.1 37.8 L16.5 38.0 Q12.9 38.0 9.45 36.85 4.8 35.25 2.35 31.35 -0.2 27.4 0.05 23.0 0.25 18.6 2.05 13.7 3.85 8.75 7.0 5.05 10.1 1.3 14.7 0.1 L16.5 0.0 Q18.4 0.05 20.2 0.8 24.95 2.85 27.35 7.4" fill="#f4dbdb" fill-rule="evenodd" stroke="none"/>
    </g>
    <g id="sprite1" transform="matrix(1.0, 0.0, 0.0, 1.0, 0.45, 0.5)">
      <use height="38.95" transform="matrix(1.0, 0.0, 0.0, 1.0, -0.45, -0.5)" width="33.05" xlink:href="#shape1"/>
    </g>
    <g id="shape1" transform="matrix(1.0, 0.0, 0.0, 1.0, 0.45, 0.5)">
      <path d="M27.35 7.4 Q24.95 2.85 20.2 0.8 17.55 -0.3 14.7 0.1 10.1 1.3 7.0 5.05 3.85 8.75 2.05 13.7 0.25 18.6 0.05 23.0 -0.2 27.4 2.35 31.35 4.8 35.25 9.45 36.85 14.1 38.4 19.1 37.8 24.05 36.95 27.85 33.75 31.7 30.6 32.05 25.65 32.35 20.85 30.9 16.15 29.5 11.55 27.35 7.4 Z" fill="none" stroke="#000000" stroke-linecap="round" stroke-linejoin="round" stroke-width="1.0"/>
    </g>
    <g id="shape2" transform="matrix(1.0, 0.0, 0.0, 1.0, 19.55, -0.85)">
      <path d="M16.4 10.2 L19.45 10.95 19.15 11.55 17.9 14.35 17.9 14.6 18.6 17.05 18.65 17.65 17.65 17.65 Q13.1 17.6 10.65 20.45 8.7 22.7 8.65 25.6 L8.6 26.4 7.85 26.55 Q6.3 26.9 5.05 30.15 L4.05 31.35 3.2 30.05 Q2.1 26.95 0.4 26.55 L-0.35 26.4 -0.35 25.6 Q-0.45 22.7 -2.4 20.45 -4.85 17.6 -9.4 17.65 L-10.35 17.65 -10.35 17.1 -9.75 14.35 -11.1 11.25 -7.45 10.05 16.4 10.2" fill="#1a171b" fill-rule="evenodd" stroke="none"/>
      <path d="M10.75 5.0 Q14.95 5.15 15.85 6.9 16.2 7.55 16.2 8.35 L15.85 9.9 19.2 11.05 19.05 11.35 17.75 14.25 17.75 14.5 Q17.75 15.05 18.45 16.95 L18.45 17.3 17.8 17.25 Q13.1 17.2 10.5 20.25 8.55 22.55 8.45 25.6 L8.4 26.15 7.9 26.25 Q6.1 26.65 4.9 29.95 L4.15 30.85 3.5 29.95 Q2.35 26.65 0.5 26.25 L0.0 26.15 -0.05 25.6 Q-0.15 22.55 -2.1 20.25 -4.65 17.2 -9.4 17.25 L-10.05 17.3 -10.05 17.0 -9.5 14.15 -10.8 11.05 -7.45 9.9 -7.8 8.35 Q-7.8 7.55 -7.45 6.9 -6.55 5.15 -2.4 5.0 2.1 4.85 4.2 7.95 6.3 4.85 10.75 5.0" fill="#1a171b" fill-rule="evenodd" stroke="none"/>
      <path d="M4.15 9.75 Q4.65 5.65 10.65 5.85 15.0 6.0 15.35 8.25 15.5 9.35 14.8 10.45 L18.15 11.6 Q17.1 13.3 16.95 14.15 16.8 14.9 17.65 16.65 12.5 16.6 9.8 19.95 7.75 22.4 7.65 25.6 5.35 26.1 4.15 29.7 L4.15 29.8 4.1 29.85 4.1 29.7 Q2.9 26.1 0.6 25.6 0.5 22.4 -1.55 19.95 -4.25 16.6 -9.45 16.65 -8.65 14.9 -8.85 14.1 L-9.95 11.6 -6.6 10.45 Q-7.3 9.35 -7.1 8.25 -6.75 6.0 -2.4 5.85 3.65 5.65 4.15 9.75" fill="#d9c288" fill-rule="evenodd" stroke="none"/>
      <path d="M15.15 15.05 Q16.2 14.35 17.25 12.9 L18.15 11.6 16.95 14.15 16.95 14.3 Q16.75 15.05 17.65 16.65 12.5 16.6 9.8 19.95 7.75 22.4 7.65 25.6 5.35 26.1 4.15 29.7 L4.15 29.8 4.1 29.85 4.1 29.7 Q4.25 22.7 7.2 19.0 8.45 17.4 11.2 16.5 L15.15 15.05" fill="#b69a65" fill-rule="evenodd" stroke="none"/>
      <path d="M16.65 12.25 Q16.75 13.3 15.7 13.7 13.35 14.65 10.3 13.8 L5.35 12.5 0.35 12.7 Q-2.95 12.7 -6.35 10.55 2.0 11.35 2.6 8.75 L2.15 7.3 3.05 7.95 Q3.95 8.8 4.15 10.0 L4.7 8.45 6.95 10.35 Q9.85 11.8 13.05 9.7 14.25 8.95 14.45 7.75 L14.45 6.7 15.15 7.7 Q15.7 9.0 14.8 10.45 16.6 11.05 16.65 12.25" fill="#b69a65" fill-rule="evenodd" stroke="none"/>
      <path d="M5.2 18.05 Q3.1 21.35 3.0 26.05 L1.2 24.65 Q1.35 23.05 0.2 20.8 L-0.95 18.85 Q-2.3 17.4 -5.05 16.4 L-7.5 15.7 -2.9 16.65 Q-0.4 17.75 -3.55 14.0 L-0.7 16.2 Q2.65 18.3 5.2 18.05" fill="#b69a65" fill-rule="evenodd" stroke="none"/>
      <path d="M-0.35 6.7 L1.1 7.75 Q-4.1 10.25 -6.45 9.65 -6.7 9.0 -6.55 8.25 -6.25 6.75 -4.15 6.35 -2.0 5.95 -0.35 6.7" fill="#ffe3ae" fill-rule="evenodd" stroke="none"/>
      <path d="M7.55 9.5 Q5.25 8.95 5.8 8.3 6.3 7.6 8.65 6.8 11.3 5.9 12.55 6.45 14.05 7.1 11.85 8.5 9.6 9.9 7.55 9.5" fill="#ffe3ae" fill-rule="evenodd" stroke="none"/>
      <path d="M-6.8 11.3 Q-5.7 12.2 -4.9 13.7 -4.1 15.25 -4.95 15.15 -8.1 14.9 -8.3 13.95 -9.25 12.05 -8.95 12.0 L-6.8 11.3" fill="#ffe3ae" fill-rule="evenodd" stroke="none"/>
      <path d="M4.3 14.7 Q11.4 14.7 17.15 13.35 L16.95 14.65 Q12.55 16.15 4.3 16.15 L-1.05 15.9 -1.5 14.45 4.3 14.7" fill="#533a2d" fill-rule="evenodd" stroke="none"/>
      <path d="M-7.6 13.7 L-1.5 14.45 -1.05 15.9 -6.7 15.2 -7.6 13.7" fill="#7c6038" fill-rule="evenodd" stroke="none"/>
      <path d="M-9.45 13.35 L-7.6 13.7 -6.7 15.2 -9.2 14.65 -9.45 13.35" fill="#533a2d" fill-rule="evenodd" stroke="none"/>
      <path d="M-8.9 14.0 L-7.25 14.25 -7.05 14.6 -8.85 14.2 -8.9 14.0" fill="#b69a65" fill-rule="evenodd" stroke="none"/>
      <path d="M-7.25 14.25 L-1.4 14.95 -1.3 15.4 -7.05 14.6 -7.25 14.25" fill="#d9c288" fill-rule="evenodd" stroke="none"/>
      <path d="M4.3 15.25 L16.4 14.1 16.4 14.4 Q11.2 15.6 4.3 15.6 L-1.3 15.4 -1.4 14.95 4.3 15.25" fill="#b69a65" fill-rule="evenodd" stroke="none"/>
      <path d="M2.7 16.9 Q4.3 16.6 3.6 17.45 L2.1 18.55 Q0.5 19.9 -0.15 21.45 L-1.1 19.55 0.2 18.35 Q1.7 17.1 2.7 16.9" fill="#d9c288" fill-rule="evenodd" stroke="none"/>
      <path d="M-10.1 3.1 Q-9.4 7.35 -7.95 9.85 L-7.45 10.75 -8.15 10.05 Q-9.25 8.95 -11.9 8.05 L-15.75 6.45 Q-17.85 5.25 -18.9 3.05 L-19.55 0.85 -19.35 0.9 -16.9 1.35 -10.45 1.8 -10.35 1.8 -10.1 3.1" fill="#1a171b" fill-rule="evenodd" stroke="none"/>
      <path d="M-10.8 3.3 L-14.0 2.55 Q-15.85 2.5 -16.8 4.6 -18.15 3.45 -18.6 1.75 L-10.95 2.5 -10.8 3.15 -10.8 3.3" fill="#ffffff" fill-rule="evenodd" stroke="none"/>
      <path d="M-10.65 4.1 Q-12.75 4.65 -14.25 6.2 L-15.4 5.65 -16.8 4.6 Q-15.85 2.5 -14.0 2.55 L-10.8 3.3 -10.65 4.1" fill="#b8b1b1" fill-rule="evenodd" stroke="none"/>
      <path d="M-14.25 6.2 Q-12.75 4.65 -10.65 4.1 L-9.55 7.9 Q-10.55 7.45 -11.7 7.15 L-14.25 6.2" fill="#777774" fill-rule="evenodd" stroke="none"/>
      <path d="M28.9 0.9 L29.1 0.85 29.1 1.05 Q28.7 4.55 25.3 6.45 23.8 7.3 21.45 8.05 18.85 8.95 17.7 10.05 L16.95 10.75 17.45 9.85 Q18.85 7.45 19.65 3.1 L19.9 1.8 20.0 1.8 Q25.45 1.8 28.9 0.9" fill="#1a171b" fill-rule="evenodd" stroke="none"/>
      <path d="M20.3 3.3 L20.35 3.15 20.5 2.5 28.2 1.75 Q27.75 3.35 26.4 4.6 25.45 2.4 20.3 3.3" fill="#ffffff" fill-rule="evenodd" stroke="none"/>
      <path d="M20.15 4.1 L20.3 3.3 Q25.4 2.45 27.6 3.15 26.95 4.55 24.95 5.65 L23.8 6.2 Q22.3 4.65 20.15 4.1" fill="#b8b1b1" fill-rule="evenodd" stroke="none"/>
      <path d="M23.8 6.2 L21.2 7.15 Q20.1 7.45 19.1 7.9 19.7 6.45 20.15 4.1 22.3 4.65 23.8 6.2" fill="#777774" fill-rule="evenodd" stroke="none"/>
    </g>
  </defs>
</svg>
